Sources/FrostedUI/Resources/Icons.xcassets/export20.imageset/export-20.svg

<svg width="20" height="20" viewBox="0 0 20 20" fill="none" xmlns="http://www.w3.org/2000/svg" data-fui-icon="true">
  <path
    d="M8.5 3C8.91421 3 9.25 3.33579 9.25 3.75C9.25 4.16421 8.91421 4.5 8.5 4.5H4.32031C3.31515 4.5 2.5 5.31515 2.5 6.32031V15.6797C2.5 16.6848 3.31515 17.5 4.32031 17.5H13.6797C14.6848 17.5 15.5 16.6848 15.5 15.6797V11.5C15.5 11.0858 15.8358 10.75 16.25 10.75C16.6642 10.75 17 11.0858 17 11.5V15.6797C17 17.5133 15.5133 19 13.6797 19H4.32031C2.48673 19 1 17.5133 1 15.6797V6.32031C1 4.48673 2.48673 3 4.32031 3H8.5ZM18.25 1C18.6642 1.00004 19 1.33581 19 1.75V7C19 7.41419 18.6642 7.74996 18.25 7.75C17.8358 7.75 17.5 7.41421 17.5 7V3.56055L10.2803 10.7803C9.98738 11.0732 9.51262 11.0732 9.21973 10.7803C8.92684 10.4874 8.92684 10.0126 9.21973 9.71973L16.4395 2.5H13C12.5858 2.5 12.25 2.16421 12.25 1.75C12.25 1.33579 12.5858 1 13 1H18.25Z"
    fill="currentColor"
  />
</svg>

<svg xmlns="http://www.w3.org/2000/svg" width="20" height="20" fill="none" data-fui-icon="true" viewBox="0 0 20 20"><path fill="currentColor" d="M8.5 3a.75.75 0 0 1 0 1.5H4.32A1.82 1.82 0 0 0 2.5 6.32v9.36a1.82 1.82 0 0 0 1.82 1.82h9.36a1.82 1.82 0 0 0 1.82-1.82V11.5a.75.75 0 0 1 1.5 0v4.18A3.32 3.32 0 0 1 13.68 19H4.32A3.32 3.32 0 0 1 1 15.68V6.32A3.32 3.32 0 0 1 4.32 3zm9.75-2a.75.75 0 0 1 .75.75V7a.75.75 0 0 1-1.5 0V3.56l-7.22 7.22a.75.75 0 1 1-1.06-1.06l7.22-7.22H13A.75.75 0 0 1 13 1z"/></svg>
